svg/mono/elo.svg

<svg height="471" viewBox="0 0 750 471" width="750" xmlns="http://www.w3.org/2000/svg"><path d="m0 40c0-22.1 17.9-40 40-40h670c22.1 0 40 17.9 40 40v391c0 22.1-17.9 40-40 40h-670c-22.1 0-40-17.9-40-40zm154.5 131.6c6.7-2.2 13.9-3.5 21.4-3.5 32.6 0 59.8 23.2 66 53.9l46.2-9.4c-10.6-52.3-56.8-91.6-112.2-91.6-12.7 0-24.9 2.1-36.3 5.9zm-54.5 149.7 31.2-35.3c-14.45913-12.798677-22.72617-31.190109-22.7-50.5 0-20.1 8.8-38.1 22.7-50.4l-31.2-35.3c-23.7 21-38.6 51.6-38.6 85.7s14.9 64.8 38.6 85.8zm141.8-72.3c-6.3 30.7-33.4 53.8-66 53.8-7.5 0-14.7-1.2-21.4-3.5l-15 44.7c11.4 3.8 23.6 5.9 36.3 5.9 55.4 0 101.5-39.3 112.2-91.5zm200 31.6c-7.6 7.4-18 11.9-29.4 11.8-7.8-.1-15.1-2.5-21.2-6.4l-15.3 24.4c10.5 6.6 22.8 10.5 36.1 10.7 19.4.3 37-7.3 49.9-19.9zm-27.7-99.2c-38.5-.6-70.3 30.2-70.9 68.8-.2 14.5 4 28 11.3 39.2l126.5-54.1c-7.1-30.5-34.2-53.4-66.9-53.9zm-41.9 74.2c-.2-1.6-.3-3.3-.2-5 .4-22.7 19.1-40.9 41.8-40.5 12.4.2 23.3 5.8 30.8 14.6zm148.5-105.7h-26.7v135.3c0 7.3 1.9 12.7 4.5 16.7 2.7 3.9 6.2 7.3 11.4 9.6l23.1 9.6 11.1-26.6-23.4-9.7zm84.4 62.3c4.1-1.4 8.5-2.1 13-2.1 19.9 0 36.5 14.1 40.3 32.9l28.2-5.7c-6.5-31.9-34.7-55.9-68.5-55.9-7.7 0-15.2 1.3-22.1 3.6zm-33.2 91.4 19.1-21.5c-8.5-7.5-13.9-18.5-13.9-30.8s5.4-23.2 13.9-30.8l-19.1-21.5c-14.5 12.8-23.6 31.5-23.6 52.3s9.1 39.5 23.6 52.3zm86.5-44.1c-3.8 18.7-20.4 32.9-40.3 32.9-4.6 0-8.9-.7-13-2.1l-9.1 27.3c7 2.3 14.4 3.6 22.2 3.6 33.8 0 62-24 68.5-55.9z" fill="#393939"/></svg>

<svg width="750" height="471" viewBox="0 0 750 471" version="1.1" xmlns="http://www.w3.org/2000/svg" xmlns:xlink="http://www.w3.org/1999/xlink">
    <!-- Generator: Sketch 48.2 (47327) - http://www.bohemiancoding.com/sketch -->
    <desc>Created with Sketch.</desc>
    <defs></defs>
    <g id="Page-1" stroke="none" stroke-width="1" fill="none" fill-rule="evenodd">
        <path d="M0,40 C0,17.9 17.9,0 40,0 L710,0 C732.1,0 750,17.9 750,40 L750,431 C750,453.1 732.1,471 710,471 L40,471 C17.9,471 0,453.1 0,431 L0,40 Z M154.5,171.6 C161.2,169.4 168.4,168.1 175.9,168.1 C208.5,168.1 235.7,191.3 241.9,222 L288.1,212.6 C277.5,160.3 231.3,121 175.9,121 C163.2,121 151,123.1 139.6,126.9 L154.5,171.6 Z M100,321.3 L131.2,286 C116.74087,273.201323 108.47383,254.809891 108.5,235.5 C108.5,215.4 117.3,197.4 131.2,185.1 L100,149.8 C76.3,170.8 61.4,201.4 61.4,235.5 C61.4,269.6 76.3,300.3 100,321.3 Z M241.8,249 C235.5,279.7 208.4,302.8 175.8,302.8 C168.3,302.8 161.1,301.6 154.4,299.3 L139.4,344 C150.8,347.8 163,349.9 175.7,349.9 C231.1,349.9 277.2,310.6 287.9,258.4 L241.8,249 Z M441.8,280.6 C434.2,288 423.8,292.5 412.4,292.4 C404.6,292.3 397.3,289.9 391.2,286 L375.9,310.4 C386.4,317 398.7,320.9 412,321.1 C431.4,321.4 449,313.8 461.9,301.2 L441.8,280.6 Z M414.1,181.4 C375.6,180.8 343.8,211.6 343.2,250.2 C343,264.7 347.2,278.2 354.5,289.4 L481,235.3 C473.9,204.8 446.8,181.9 414.1,181.4 Z M372.2,255.6 C372,254 371.9,252.3 372,250.6 C372.4,227.9 391.1,209.7 413.8,210.1 C426.2,210.3 437.1,215.9 444.6,224.7 L372.2,255.6 Z M520.7,149.9 L494,149.9 L494,285.2 C494,292.5 495.9,297.9 498.5,301.9 C501.2,305.8 504.7,309.2 509.9,311.5 L533,321.1 L544.1,294.5 L520.7,284.8 L520.7,149.9 Z M605.1,212.2 C609.2,210.8 613.6,210.1 618.1,210.1 C638,210.1 654.6,224.2 658.4,243 L686.6,237.3 C680.1,205.4 651.9,181.4 618.1,181.4 C610.4,181.4 602.9,182.7 596,185 L605.1,212.2 Z M571.9,303.6 L591,282.1 C582.5,274.6 577.1,263.6 577.1,251.3 C577.1,239 582.5,228.1 591,220.5 L571.9,199 C557.4,211.8 548.3,230.5 548.3,251.3 C548.3,272.1 557.4,290.8 571.9,303.6 Z M658.4,259.5 C654.6,278.2 638,292.4 618.1,292.4 C613.5,292.4 609.2,291.7 605.1,290.3 L596,317.6 C603,319.9 610.4,321.2 618.2,321.2 C652,321.2 680.2,297.2 686.7,265.3 L658.4,259.5 Z" id="elo" fill="#393939" fill-rule="nonzero"></path>
    </g>
</svg>
